X:15417
T:SiebenSchritt
M:2/4
L:1/8
Q:1/8=200
R:Pas de Sept
O:Allemagne
K:C
G2|c2 ce|d2 df|B2 Bd|c2 G2|c2 ce|d2df|B2 Bd|1 c2:|2 c4||!
g2g2|a3g|fefa|g4|e2e2|f2f2|g3 f|edef|g2g2|a3g|fefa|g4|e2e2|f2f2||
% Output from ABC2Win  Version 2.1 f on 02/08/98
